public/linkedin.svg

<svg xmlns="http://www.w3.org/2000/svg" xmlns:xlink="http://www.w3.org/1999/xlink" width="32" height="32" viewBox="0 0 32 32">
  <defs>
    <clipPath id="clip-Custom_Size_1">
      <rect width="32" height="32"/>
    </clipPath>
  </defs>
  <g id="Custom_Size_1" data-name="Custom Size – 1" clip-path="url(#clip-Custom_Size_1)">
    <rect width="32" height="32" fill="#fff"/>
    <path id="Path_1" data-name="Path 1" d="M0,5A5,5,0,0,1,5,0H27a5,5,0,0,1,5,5V27a5,5,0,0,1-5,5H5a5,5,0,0,1-5-5Zm8.2,8.3V24h3.4V13.3ZM8,9.9a1.839,1.839,0,0,0,1.9,1.9,1.839,1.839,0,0,0,1.9-1.9A1.839,1.839,0,0,0,9.9,8,1.9,1.9,0,0,0,8,9.9ZM20.6,24h3.2V17.4c0-3.3-2-4.4-3.9-4.4a3.613,3.613,0,0,0-3.2,1.8V13.3H13.5V24h3.4V18.3a2.09,2.09,0,0,1,2-2.3c1,0,1.7.5,1.7,2.2Z" fill="#4a4a4a" fill-rule="evenodd"/>
  </g>
</svg>

<svg width="32" height="32" viewBox="0 0 32 32" fill="none" xmlns="http://www.w3.org/2000/svg">
<path fill-rule="evenodd" clip-rule="evenodd" d="M0 5C0 2.23858 2.23858 0 5 0H27C29.7614 0 32 2.23858 32 5V27C32 29.7614 29.7614 32 27 32H5C2.23858 32 0 29.7614 0 27V5ZM8.2 13.3V24H11.6V13.3H8.2ZM8 9.9C8 11 8.8 11.8 9.9 11.8C11 11.8 11.8 11 11.8 9.9C11.8 8.8 11 8 9.9 8C8.9 8 8 8.8 8 9.9ZM20.6 24H23.8V17.4C23.8 14.1 21.8 13 19.9 13C18.2 13 17 14.1 16.7 14.8V13.3H13.5V24H16.9V18.3C16.9 16.8 17.9 16 18.9 16C19.9 16 20.6 16.5 20.6 18.2V24Z" fill="#4A4A4A"/>
</svg>
